src/assets/images/calendar.svg

<svg width="24" height="25" viewBox="0 0 24 25" fill="none" xmlns="http://www.w3.org/2000/svg">
<path d="M21 3.5H19C18.4477 3.5 18 3.05228 18 2.5C18 1.94772 17.5523 1.5 17 1.5C16.4477 1.5 16 1.94772 16 2.5V6.5C16 7.05228 16.4477 7.5 17 7.5C17.5523 7.5 18 7.05228 18 6.5C18 5.94772 18.4477 5.5 19 5.5H19.5C20.3284 5.5 21 6.17157 21 7V18.5C21 19.6046 20.1046 20.5 19 20.5H5C3.89543 20.5 3 19.6046 3 18.5V6.5C3 5.94772 3.44772 5.5 4 5.5C4.55228 5.5 5 5.05228 5 4.5C5 3.94772 4.55228 3.5 4 3.5H3C1.896 3.5 1 4.395 1 5.5V20.5C1 21.604 1.896 22.5 3 22.5H21C22.104 22.5 23 21.604 23 20.5V5.5C23 4.395 22.104 3.5 21 3.5Z" fill="#919191"/>
<path d="M8 6.5C8 5.94772 8.44772 5.5 9 5.5H14C14.5523 5.5 15 5.05228 15 4.5C15 3.94772 14.5523 3.5 14 3.5H9C8.44772 3.5 8 3.05228 8 2.5C8 1.94772 7.55228 1.5 7 1.5C6.44772 1.5 6 1.94772 6 2.5V6.5C6 7.05228 6.44772 7.5 7 7.5C7.55228 7.5 8 7.05228 8 6.5Z" fill="#919191"/>
<path d="M5 11.5C5 12.6046 5.89543 13.5 7 13.5C8.10457 13.5 9 12.6046 9 11.5C9 10.3954 8.10457 9.5 7 9.5C5.89543 9.5 5 10.3954 5 11.5Z" fill="#919191"/>
<path d="M10 11.5C10 12.6046 10.8954 13.5 12 13.5C13.1046 13.5 14 12.6046 14 11.5C14 10.3954 13.1046 9.5 12 9.5C10.8954 9.5 10 10.3954 10 11.5Z" fill="#919191"/>
<path d="M15 11.5C15 12.6046 15.8954 13.5 17 13.5C18.1046 13.5 19 12.6046 19 11.5C19 10.3954 18.1046 9.5 17 9.5C15.8954 9.5 15 10.3954 15 11.5Z" fill="#919191"/>
<path d="M5 16.5C5 17.6046 5.89543 18.5 7 18.5C8.10457 18.5 9 17.6046 9 16.5C9 15.3954 8.10457 14.5 7 14.5C5.89543 14.5 5 15.3954 5 16.5Z" fill="#919191"/>
<path d="M10 16.5C10 17.6046 10.8954 18.5 12 18.5C13.1046 18.5 14 17.6046 14 16.5C14 15.3954 13.1046 14.5 12 14.5C10.8954 14.5 10 15.3954 10 16.5Z" fill="#919191"/>
</svg>

<svg xmlns="http://www.w3.org/2000/svg" width="24" height="25" fill="none">
  <path fill="#919191" d="M21 3.5h-2a1 1 0 0 1-1-1 1 1 0 1 0-2 0v4a1 1 0 1 0 2 0 1 1 0 0 1 1-1h.5A1.5 1.5 0 0 1 21 7v11.5a2 2 0 0 1-2 2H5a2 2 0 0 1-2-2v-12a1 1 0 0 1 1-1 1 1 0 0 0 0-2H3a2 2 0 0 0-2 2v15a2 2 0 0 0 2 2h18a2 2 0 0 0 2-2v-15a2 2 0 0 0-2-2z"/>
  <path fill="#919191" d="M8 6.5a1 1 0 0 1 1-1h5a1 1 0 1 0 0-2H9a1 1 0 0 1-1-1 1 1 0 0 0-2 0v4a1 1 0 0 0 2 0zM5 11.5a2 2 0 1 0 4 0 2 2 0 0 0-4 0zM10 11.5a2 2 0 1 0 4 0 2 2 0 0 0-4 0zM15 11.5a2 2 0 1 0 4 0 2 2 0 0 0-4 0zM5 16.5a2 2 0 1 0 4 0 2 2 0 0 0-4 0zM10 16.5a2 2 0 1 0 4 0 2 2 0 0 0-4 0z"/>
</svg>
